**kern	**kern	**dynam
*part1	*part1	*part1
*staff2	*staff1	*
*I"Piano	*	*
*clefF4	*clefG2	*
*k[f#c#]	*k[f#c#]	*
=1	=1	=1
(8A	(8a	p
=	=	=
4d	4dd^	.
8A	8a	.
4d	4dd^	.
8A)	8a)	.
=	=	=
!	!LO:TX:b:t=cresc.	!LO:DY:a
(4B-X 4d	(4b-X 4dd	<
8Fn 8A 8cn	8fn 8a 8ccn	<
4B- 4d	4b- 4dd	[ >
8F) 8A 8c	8f) 8a 8cc	]
=	=	=
(4G 4B-X	(4d 4g 4b-X	.
8D 8Fn 8A	8d 8fn 8a	.
!	!LO:TX:b:t=decresc.	!LO:DY:a
4G 4B-	4d 4g 4b-	] >
8D) 8F 8A	8d) 8f 8a	.
=	=	=
4AA 4E 4A	(4c#X 4e 4a	.
8D 8A	8d 8fn 8a	.
4AA 4A	4c# 4e 4a	.
(8FF#X	8A) 8d 8a	.
=	=	=
*	*^	*
4EE)	(8aL	4A 4d	] p
.	8g)	.	.
8EE	8g'J	8A 8d	.
4AA	(8.gML	4A 4c#	.
.	16f#XK	.	.
8AA	8gJ)	8A 8c#	.
*	*v	*v	*
=	=	=
4DD 4D	4A 4d 4f#	pp
8D 8A	8d 8f#	.
4D 4A	4d 4f#	.
8D 8A	8d 8f#	.
=	=	=
*-	*-	*-
!!!system-decoration: {(s1,s2)}
